X:1
T:Savior, Listen to Our Prayer
T:Savior, Listen to Our Prayer
T:Edward W. Kellogg
T:Edward W. Kellogg, 1858
T:Public Domain Courtesy of the Cyber Hymnal™
C:Edward W. Kellogg
Z:Public Domain
Z:Courtesy of the Cyber Hymnal™
%%score ( 1 2 ) ( 3 4 )
L:1/8
Q:1/4=109
M:4/4
K:Ab
V:1 treble 
V:2 treble 
V:3 bass 
V:4 bass 
V:1
 [CA]2 [CA]2 [CA]2 [CA]2 | [=Ec]2 [Ec]2 F4 | F2 (FG) [EA]2 (AB) | [Ec]2 [Ec]2 [EB]4 | %4
w: 1.~Sav- ior, lis- ten|to our prayer,|Pour and * sin- ful *|though we are;|
w: 2.~Strength is Thine; we|oft- en stray|From the * pure and *|ho- ly way;|
w: 3.~Then may we, when|life is o’er,|Stand with * Thee on *|yon- der shore;|
 [CA]2 [CA]2 [CA]2 [CA]2 | [=Ec]2 [Ec]2 F2 F2 | F2 F[=EG] [FA]2 [EG]2 | F6 ||"^Refrain" E2 | %9
w: Guilt con- fess- ing,|Give Thy bless- ing,|Grant Thy lov- ing care.|||
w: Wilt Thou guide us,|Walk be- side us,|Near- er ev- ery day!||O|
w: Freed from sin- ning,|Hea- ven win- ning,|Prais- ing ev- er- more.|||
 [Ac]3 [Ec] [EA]2 F2 | [EA]3 [FA] [EA]4 | [Ec]3 [DB] [CA]2 [=DF]2 | [EB]3 [Ec] [EB]4 | %13
w: ||||
w: God our Fa- ther,|Christ our king,|Now to Thee our|hearts we bring;|
w: ||||
 [Ec]2 ([Fd][Ec]) [DB]2 (cB) | [CA]2 (BA) [=EG]2 (AG) | (FG) (AB) [Ec]2 (dc) | [Ec]2 [DB]2 [CA]4 |] %17
w: ||||
w: Keep them * ev- er, *|bless- èd * Sav- ior, *|Till * in * Heav’n Thy *|love we sing.|
w: ||||
V:2
 x8 | x4 F4 | F2 F2 x E2 x | x8 | x8 | x4 F2 F2 | F2 F x5 | F6 || E2 | x6 F2 | x8 | x8 | x8 | %13
 x6 D2 | x2 F2 x =E2 x | F2 E2 x F2 x | x8 |] %17
V:3
 A,2 A,2 A,2 A,2 | [C,G,]2 [C,G,]2 [F,A,]4 | [D,A,]2 (A,B,) [C,A,]2 ([C,A,][B,,G,]) | %3
 [A,,A,]2 [A,,A,]2 [E,G,]4 | A,2 A,2 A,2 A,2 | [C,G,]2 [C,G,]2 [F,A,]2 [F,A,]2 | %6
 [D,A,]2 (A,B,) [C,C]2 [C,B,]2 | [F,A,]6 || [A,C]2 | [A,E]3 [A,D] [A,C]2 [A,D]2 | %10
 [A,C]3 [A,D] [A,C]4 | A,3 A, A,2 A,2 | [E,G,]3 [E,A,] [E,G,]4 | A,2 A,2 [E,G,]2 [E,G,]2 | %14
 [F,A,]2 [F,C]2 [C,C]2 (CB,) | (A,B,) ([C,A,][E,G,]) A,2 [D,A,]2 | [E,A,]2 [E,G,]2 [A,,A,]4 |] %17
V:4
 A,2 A,2 A,2 A,2 | x8 | x2 D,2 x4 | x8 | A,2 A,2 A,2 A,2 | x8 | x2 D,2 x4 | x6 || x2 | x8 | x8 | %11
 A,3 A, A,2 A,2 | x8 | A,2 A,2 x4 | x6 C,2 | D,2 x A,2 x3 | x8 |] %17

